img/svg/ic-viber.svg

<svg width="17" height="16" viewBox="0 0 17 16" fill="none" xmlns="http://www.w3.org/2000/svg">
<path d="M15.7998 3.7C13.3998 -2.38419e-07 8.49978 -1.1 4.69978 1.2C0.999779 3.5 -0.20022 8.5 2.19978 12.2L2.39978 12.5L1.59978 15.5L4.59978 14.7L4.89978 14.9C6.19978 15.6 7.59978 16 8.99978 16C10.4998 16 11.9998 15.6 13.2998 14.8C16.9998 12.4 18.0998 7.5 15.7998 3.7ZM13.6998 11.4C13.2998 12 12.7998 12.4 12.0998 12.5C11.6998 12.5 11.1998 12.7 9.19978 11.9C7.49978 11.1 6.09978 9.8 5.09978 8.3C4.49978 7.6 4.19978 6.7 4.09978 5.8C4.09978 5 4.39978 4.3 4.89978 3.8C5.09978 3.6 5.29978 3.5 5.49978 3.5H5.99978C6.19978 3.5 6.39978 3.5 6.49978 3.9C6.69978 4.4 7.19978 5.6 7.19978 5.7C7.29978 5.8 7.29978 6 7.19978 6.1C7.29978 6.3 7.19978 6.5 7.09978 6.6C6.99978 6.7 6.89978 6.9 6.79978 7C6.59978 7.1 6.49978 7.3 6.59978 7.5C6.99978 8.1 7.49978 8.7 7.99978 9.2C8.59978 9.7 9.19978 10.1 9.89978 10.4C10.0998 10.5 10.2998 10.5 10.3998 10.3C10.4998 10.1 10.9998 9.6 11.1998 9.4C11.3998 9.2 11.4998 9.2 11.6998 9.3L13.2998 10.1C13.4998 10.2 13.6998 10.3 13.7998 10.4C13.8998 10.7 13.8998 11.1 13.6998 11.4Z" fill="white"/>
</svg>

<svg width="17" height="16" viewBox="0 0 17 16" xmlns="http://www.w3.org/2000/svg"><path d="M15.8 3.7C13.4 0 8.5-1.1 4.7 1.2 1 3.5-.2 8.5 2.2 12.2l.2.3-.8 3 3-.8.3.2C6.2 15.6 7.6 16 9 16c1.5 0 3-.4 4.3-1.2 3.7-2.4 4.8-7.3 2.5-11.1zm-2.1 7.7c-.4.6-.9 1-1.6 1.1-.4 0-.9.2-2.9-.6-1.7-.8-3.1-2.1-4.1-3.6-.6-.7-.9-1.6-1-2.5 0-.8.3-1.5.8-2 .2-.2.4-.3.6-.3H6c.2 0 .4 0 .5.4.2.5.7 1.7.7 1.8.1.1.1.3 0 .4.1.2 0 .4-.1.5-.1.1-.2.3-.3.4-.2.1-.3.3-.2.5.4.6.9 1.2 1.4 1.7.6.5 1.2.9 1.9 1.2.2.1.4.1.5-.1.1-.2.6-.7.8-.9.2-.2.3-.2.5-.1l1.6.8c.2.1.4.2.5.3.1.3.1.7-.1 1z"/></svg>
